svg/snail.svg

<?xml version="1.0" encoding="UTF-8"?>
<svg xmlns="http://www.w3.org/2000/svg" xmlns:xlink="http://www.w3.org/1999/xlink" width="32" height="32" viewBox="0 0 32 32">
<path fill-rule="nonzero" fill="rgb(0%, 0%, 0%)" fill-opacity="1" d="M 25.539062 1.28125 C 24.039062 1.28125 23.308594 3.558594 23.980469 7.339844 C 24.261719 7.257812 24.550781 7.199219 24.839844 7.160156 C 24.242188 2.617188 26.535156 4.574219 26.878906 2.621094 C 27.007812 1.851562 26.371094 1.28125 25.539062 1.28125 M 30.441406 2.578125 C 29.261719 2.691406 28 4.300781 27.058594 7.261719 C 27.367188 7.328125 27.667969 7.414062 27.960938 7.519531 C 29.503906 3.300781 30.597656 6.144531 31.800781 4.539062 C 32.246094 3.964844 31.945312 3.144531 31.238281 2.757812 C 30.996094 2.625 30.71875 2.5625 30.441406 2.582031 M 25.601562 8.378906 C 22.523438 8.378906 21.121094 11.0625 21.121094 13.558594 C 21.121094 13.976562 21.105469 14.460938 21.082031 14.960938 C 21.578125 16.199219 21.8125 17.527344 21.761719 18.859375 L 21.761719 19.019531 C 21.539062 21.285156 20.171875 22.988281 19.058594 24.019531 C 18.90625 24.164062 18.726562 24.292969 18.558594 24.417969 C 18.488281 24.476562 18.414062 24.527344 18.339844 24.578125 C 18.335938 24.585938 18.34375 24.59375 18.339844 24.601562 C 18.25 24.664062 18.152344 24.722656 18.058594 24.78125 C 17.960938 24.84375 17.863281 24.902344 17.761719 24.960938 C 17.40625 25.160156 17.03125 25.324219 16.640625 25.460938 L 16.578125 25.480469 C 16.089844 25.644531 15.589844 25.757812 15.082031 25.820312 C 14.996094 25.828125 14.902344 25.832031 14.820312 25.839844 C 14.769531 25.84375 14.730469 25.855469 14.679688 25.859375 L 13.359375 25.960938 L 13.359375 25.878906 C 12.949219 26.210938 12.578125 26.4375 12.320312 26.558594 C 12.191406 26.621094 12.058594 26.675781 11.921875 26.71875 C 11.847656 26.746094 11.792969 26.773438 11.71875 26.800781 C 11.007812 27.054688 10.410156 27.113281 10.378906 27.121094 C 10.363281 27.121094 10.355469 27.136719 10.339844 27.140625 L 10.320312 27.140625 C 10.148438 27.167969 9.972656 27.195312 9.800781 27.21875 L 9.71875 27.242188 C 8.828125 27.359375 7.933594 27.445312 7.039062 27.5 L 6.921875 27.5 C 6.871094 27.5 6.789062 27.503906 6.699219 27.5 C 6.664062 27.5 6.621094 27.480469 6.578125 27.480469 C 6.453125 27.476562 6.324219 27.46875 6.199219 27.460938 C 6.1875 27.457031 6.152344 27.460938 6.140625 27.460938 C 5.839844 27.441406 5.472656 27.417969 5.058594 27.359375 L 5.019531 27.339844 C 4.777344 27.304688 4.53125 27.269531 4.261719 27.21875 L 3.898438 27.160156 L 3.898438 27.140625 C 3.210938 26.996094 2.535156 26.792969 1.878906 26.539062 C 0.601562 26.707031 0 27.019531 0 27.71875 C 0 30.644531 13.320312 30.71875 14.839844 30.71875 C 27.71875 30.71875 28.144531 21.191406 28.160156 17.101562 C 29.683594 16.242188 30.71875 14.613281 30.71875 13 C 30.71875 10.457031 28.421875 8.378906 25.601562 8.378906 M 10.878906 9.601562 C 8.195312 9.601562 5.601562 10.671875 3.78125 12.539062 C 2.117188 14.230469 1.214844 16.527344 1.28125 18.898438 C 1.386719 21.667969 2.578125 24.210938 4.5 25.960938 C 5.304688 26.117188 6.121094 26.203125 6.941406 26.21875 C 8.628906 26.113281 10.734375 25.921875 11.738281 25.417969 C 12.523438 25.054688 14.71875 23.371094 14.71875 20.539062 C 14.71875 16.945312 12.039062 16 10.621094 16 C 9.027344 16 8.320312 16.964844 8.320312 17.921875 C 8.320312 18.742188 8.804688 19.960938 10.121094 19.960938 C 10.464844 19.976562 10.734375 20.257812 10.734375 20.601562 C 10.734375 20.945312 10.464844 21.226562 10.121094 21.242188 C 8.125 21.242188 7.039062 19.53125 7.039062 17.921875 C 7.039062 16.332031 8.265625 14.71875 10.621094 14.71875 C 12.78125 14.71875 16 16.265625 16 20.539062 C 16 23.503906 15.339844 23.859375 14.578125 24.539062 L 14.578125 24.578125 C 16.007812 24.46875 17.21875 23.96875 18.179688 23.082031 C 19.335938 22.007812 20.320312 20.550781 20.480469 18.878906 C 20.71875 13.820312 16.261719 9.601562 10.878906 9.601562 "/>
</svg>

<svg role="img" viewBox="0 0 32 32" xmlns="http://www.w3.org/2000/svg"><path d="M25.54 1.281c-1.5 0-2.231 2.278-1.56 6.059q.424-.121.86-.18c-.598-4.543 1.695-2.586 2.039-4.539.129-.77-.508-1.34-1.34-1.34m4.902 1.297c-1.18.113-2.441 1.723-3.382 4.684q.462.099.902.258c1.543-4.22 2.637-1.375 3.84-2.98.445-.575.144-1.395-.563-1.782a1.45 1.45 0 0 0-.797-.176m-4.84 5.797c-3.078 0-4.48 2.684-4.48 5.18 0 .418-.016.902-.039 1.402a9.5 9.5 0 0 1 .68 3.898v.16c-.223 2.266-1.59 3.97-2.703 5-.153.145-.332.274-.5.399q-.106.087-.22.16c-.003.008.005.016 0 .024-.089.062-.187.12-.28.18a8 8 0 0 1-.297.179c-.356.2-.73.363-1.121.5l-.063.02a7.6 7.6 0 0 1-1.496.34c-.086.007-.18.011-.262.019-.05.004-.09.015-.14.02l-1.32.1v-.081c-.41.332-.782.558-1.04.68a3 3 0 0 1-.398.16c-.074.027-.129.054-.203.082-.711.254-1.309.312-1.34.32-.016 0-.024.016-.04.02h-.019a24 24 0 0 1-.52.078l-.081.023a39 39 0 0 1-2.68.258h-.117c-.05 0-.133.004-.223 0-.035 0-.078-.02-.12-.02a12 12 0 0 1-.38-.02c-.011-.003-.047 0-.058 0-.301-.019-.668-.042-1.082-.1l-.04-.02c-.242-.035-.488-.07-.757-.121l-.364-.059v-.02a13 13 0 0 1-2.02-.6C.603 26.706 0 27.02 0 27.718c0 2.926 13.32 3 14.84 3 12.879 0 13.305-9.528 13.32-13.617 1.524-.86 2.559-2.489 2.559-4.102 0-2.543-2.297-4.621-5.117-4.621M10.879 9.602c-2.684 0-5.277 1.07-7.098 2.937a8.72 8.72 0 0 0-2.5 6.36c.106 2.769 1.297 5.312 3.219 7.062q1.21.234 2.441.258c1.688-.106 3.793-.297 4.797-.801.785-.363 2.98-2.047 2.98-4.879 0-3.594-2.679-4.539-4.097-4.539-1.594 0-2.3.965-2.3 1.922 0 .82.484 2.039 1.8 2.039a.64.64 0 0 1 0 1.281c-1.996 0-3.082-1.71-3.082-3.32 0-1.59 1.227-3.203 3.582-3.203 2.16 0 5.379 1.547 5.379 5.82 0 2.965-.66 3.32-1.422 4v.04c1.43-.11 2.64-.61 3.602-1.497 1.156-1.074 2.14-2.531 2.3-4.203.239-5.059-4.218-9.277-9.601-9.277" fill="rgb(0%, 0%, 0%)"/></svg>
